X:69
T:Commitee THO4.069, The
M:6/8
L:1/8
Z:vmp. Peter Dunk 2010/11.from a transcription by Fynn Titford-Mock 2007
B:Thompson's Compleat Collection of 200 Favourite Country Dances Volume IV.
Q:3/8=100
K:F
C|FGA AGF|GAB BAG|dcB AGF|EFG C2 C|FGA AGF|agf edc|def GA=B|c3 C2:|
|:G|c=Bc Gce|dcd Gdf|gfe dc=B|cdc BAG|F2 G AFC|Ddc BAG|F3 F2:|
